trunk/public/assets/images/icons/lightblue/file-ppt.svg

<svg width="16" height="16" xmlns="http://www.w3.org/2000/svg" viewBox="0 0 16 16" shape-rendering="geometricPrecision" fill="#abb7ce"><path d="M10.055 14.302l2.54-2.338h-2.54z"/><path d="M2.595 1.016v13.969h6.008v-4.468h4.802V1.016H2.595zm9.439 8.027h-4.79v4.601H3.917V2.318h8.116v6.725z"/><g><path d="M8.146 6.207h-.977v1.911h-.99V3.042h1.968c1.048 0 1.675.72 1.675 1.582 0 .863-.628 1.583-1.676 1.583zm-.049-2.281h-.928v1.391h.927c.449 0 .734-.278.734-.692.001-.414-.284-.699-.733-.699z"/></g></svg>

<?xml version="1.0"?><!DOCTYPE svg PUBLIC "-//W3C//DTD SVG 1.1//EN" "http://www.w3.org/Graphics/SVG/1.1/DTD/svg11.dtd"><svg width="16px" height="16px" xmlns="http://www.w3.org/2000/svg" viewBox="0 0 16 16" shape-rendering="geometricPrecision" fill="#abb7ce"><g><g><polygon points="10.055,14.302 12.595,11.964 10.055,11.964"/><path d="M2.595,1.016v13.969h6.008v-4.468h4.802V1.016H2.595z M12.034,9.043h-4.79v4.601H3.917V2.318h8.116V9.043z"/></g><g><path d="M8.146,6.207H7.169v1.911H6.179V3.042h1.968c1.048,0,1.675,0.72,1.675,1.582C9.822,5.487,9.194,6.207,8.146,6.207z M8.097,3.926H7.169v1.391h0.927c0.449,0,0.734-0.278,0.734-0.692C8.831,4.211,8.546,3.926,8.097,3.926z"/></g></g></svg>
